app/dist/common/images/guolian-securities-co-ltd.svg

<svg height="18" viewBox="0 0 18 18" width="18" xmlns="http://www.w3.org/2000/svg"><path d="m0 0h18v18h-18z" fill="#f0f3fa"/><path d="m11.69 3.22.31-.22v8.2a4.4 4.4 0 0 0 1.6-4.4 5.29 5.29 0 0 1 -1.92 6.4v-9.98zm-.19 1-.31.34v8.93l.31-.18v-9.08zm-1.25 1.1.63-.49v8.79c-.2.09-.42.16-.63.22zm-.31.28-.63.53v7.87c.21-.01.42-.04.63-.08zm-.94.76-1.56 1.51v3.66a4.38 4.38 0 0 1 -2.19-3.83c0-1.57.8-2.94 2.01-3.71a5.16 5.16 0 0 0 -3.26 4.85 5.08 5.08 0 0 0 5 5.16z" fill="#ce000c"/></svg>

<!-- by TradingView --><svg width="18" height="18" viewBox="0 0 18 18" xmlns="http://www.w3.org/2000/svg"><path fill="#F0F3FA" d="M0 0h18v18H0z"/><path d="M11.69 3.22 12 3v8.2a4.4 4.4 0 0 0 1.6-4.4 5.29 5.29 0 0 1-1.92 6.4V3.22Zm-.19 1-.31.34v8.93l.31-.18V4.23Zm-1.25 1.1.63-.49v8.79c-.2.09-.42.16-.63.22V5.32Zm-.31.28-.63.53V14c.21-.01.42-.04.63-.08V5.6ZM9 6.36 7.44 7.87v3.66A4.38 4.38 0 0 1 5.25 7.7c0-1.57.8-2.94 2.01-3.71A5.16 5.16 0 0 0 4 8.84 5.08 5.08 0 0 0 9 14V6.36Z" fill="#CE000C"/></svg>
